packages/calcite-ui-icons/icons/circle-area-hash-filled-24.svg

<?xml version="1.0" encoding="UTF-8"?><svg id="icons" xmlns="http://www.w3.org/2000/svg" viewBox="0 0 24 24"><defs><style>.cls-1{fill:none;}</style></defs><rect class="cls-1" width="24" height="24"/><path d="M12.5,5c-4.13574,0-7.47,3.36426-7.47,7.5s3.33426,7.5,7.47,7.5,7.5-3.36426,7.5-7.5-3.36426-7.5-7.5-7.5ZM18.43378,9.85919l-8.57452,8.57452c-.57697-.25787-1.10907-.59656-1.58289-1.00305l9.1543-9.1543c.40649.47382.74524,1.00586,1.00311,1.58282ZM9.60327,6.6897l-2.91351,2.91351c.63025-1.25879,1.65472-2.28326,2.91351-2.91351ZM6.06311,11.64392l5.58081-5.58081c.28088-.03723.56525-.06311.85608-.06311.54883,0,1.07904.07587,1.58844.20453l-7.88391,7.88391c-.12866-.5094-.20453-1.03961-.20453-1.58844,0-.29083.02588-.5752.06311-.85608ZM6.56628,15.14075L15.14081,6.56622c.57697.25787,1.10901.59662,1.58282,1.00311l-9.1543,9.1543c-.40649-.47382-.74518-1.00592-1.00305-1.58289ZM10.91156,18.79547l7.88391-7.88391c.12866.5094.20453,1.03961.20453,1.58844,0,.29083-.02588.5752-.06311.85608l-5.58081,5.58081c-.28088.03723-.56525.06311-.85608.06311-.54883,0-1.07904-.07587-1.58844-.20453ZM15.39679,18.31024l2.91351-2.91351c-.63025,1.25879-1.65472,2.28326-2.91351,2.91351ZM12.5,2C6.70996,2,2.03,6.70996,2.03,12.5s4.67996,10.5,10.47,10.5,10.5-4.70996,10.5-10.5S18.29004,2,12.5,2ZM12.5,22c-5.23828,0-9.5-4.26172-9.5-9.5S7.26172,3,12.5,3s9.5,4.26172,9.5,9.5-4.26172,9.5-9.5,9.5Z"/></svg>

<svg xmlns="http://www.w3.org/2000/svg" viewBox="0 0 24 24"><path fill="none" d="M0 0h24v24H0z"/><path d="M12.5 5c-4.136 0-7.47 3.364-7.47 7.5S8.364 20 12.5 20s7.5-3.364 7.5-7.5S16.636 5 12.5 5zm5.934 4.86l-8.575 8.574a6.51 6.51 0 0 1-1.583-1.003l9.155-9.155a6.51 6.51 0 0 1 1.003 1.583zm-8.83-3.17L6.69 9.603A6.533 6.533 0 0 1 9.603 6.69zm-3.54 4.954l5.58-5.58c.28-.038.565-.064.856-.064a6.47 6.47 0 0 1 1.588.205l-7.883 7.883A6.47 6.47 0 0 1 6 12.5c0-.29.026-.575.063-.856zm.502 3.497l8.575-8.575a6.51 6.51 0 0 1 1.583 1.003l-9.155 9.155a6.51 6.51 0 0 1-1.003-1.583zm4.346 3.654l7.883-7.883c.13.509.205 1.04.205 1.588 0 .29-.026.575-.063.856l-5.58 5.58A6.39 6.39 0 0 1 12.5 19a6.47 6.47 0 0 1-1.588-.205zm4.485-.485l2.913-2.913a6.533 6.533 0 0 1-2.913 2.913zM12.5 2C6.71 2 2.03 6.71 2.03 12.5S6.71 23 12.5 23 23 18.29 23 12.5 18.29 2 12.5 2zm0 20C7.262 22 3 17.738 3 12.5S7.262 3 12.5 3 22 7.262 22 12.5 17.738 22 12.5 22z"/></svg>
